docs/images/clippy.svg

<svg height="1024" width="896" xmlns="http://www.w3.org/2000/svg"><path d="m128 768h256v64h-256zm320-384h-320v64h320zm128 192v-128l-192 192 192 192v-128h320v-128zm-288-64h-160v64h160zm-160 192h160v-64h-160zm576 64h64v128c-1 18-7 33-19 45s-27 18-45 19h-640c-35 0-64-29-64-64v-704c0-35 29-64 64-64h192c0-71 57-128 128-128s128 57 128 128h192c35 0 64 29 64 64v320h-64v-192h-640v576h640zm-576-512h512c0-35-29-64-64-64h-64c-35 0-64-29-64-64s-29-64-64-64-64 29-64 64-29 64-64 64h-64c-35 0-64 29-64 64z"/></svg>

<svg height="1024" width="896" xmlns="http://www.w3.org/2000/svg"><path d="M128 768h256v64H128v-64zm320-384H128v64h320v-64zm128 192V448L384 640l192 192V704h320V576H576zm-288-64H128v64h160v-64zM128 704h160v-64H128v64zm576 64h64v128c-1 18-7 33-19 45s-27 18-45 19H64c-35 0-64-29-64-64V192c0-35 29-64 64-64h192C256 57 313 0 384 0s128 57 128 128h192c35 0 64 29 64 64v320h-64V320H64v576h640V768zM128 256h512c0-35-29-64-64-64h-64c-35 0-64-29-64-64s-29-64-64-64-64 29-64 64-29 64-64 64h-64c-35 0-64 29-64 64z"/></svg>
